X:182
T:Winchester Camp. THO5.182
M:6/8
L:1/8
B:Thompson's Complete Collection of 200 Favourite Dances Vol.5
F:https://www.libraryofdance.org/manuals/1780c-Thompson-Compleat-5.pdf
Z:vmp. Peter Dunk 2024
Q:3/8=100
K:D
A2f fef|A2g gfg|A2f fef|efd cBA|
A2f fef|A2g gfg|egf edc|d3 D3:|
|:a2a agf|bag agf|g2g gfe|fad cBA|
fdf B2d|geg c2e|agf efg|fdd d3:|
W:
W:Right hands across half round, half right & left back to their places ./.
W:Left hand across half round,half right & left back to their places ./:
W:cross over half figure with the 3rd Couple :/.
W:hands 4 at bottom, Right & Lrft at top :/:

